X:1
T:Title
%%score { ( 1 3 ) | ( 2 4 5 ) }
L:1/8
Q:1/4=100
M:4/4
K:Bb
V:1 treble nm="Grand Piano"
V:3 treble 
V:2 bass 
V:4 bass 
V:5 bass 
V:1
 [Fd][Ge][Fd][Ec] [DB]2 [DF]2 | [EG][GB][FA][EG] [EG]2 [DF]2 | z D z C DEF-[Fc] | %3
w: Adam~Geibel * * * * *|||
 [Fd]2 [=Ec]2 [Fc]4 | [Fd][Ge][Fd][Ec] [DB]2 [DF]2 | [EG][GB][FA]G [B,EG]2 [B,DF]2 | %6
w: |||
 [F,B,D][DF][DB][Fd] f-[_Af]fe | z2 c2 z4 | d2 A2 B2 G2 | A2 ^FD GA B2 | c2 c2 cd .[A=e]2 | %11
w: |||||
 [FA]2 [=EG]2 [A,F]4 | [Fd][Ge][Fd][Ec] [DB]2 [DF]2 | [EG][GB][FA]G [B,EG]2 [B,DF]2 | z4 f2 .f2 | %15
w: ||||
 z2 c2 z4 |] %16
w: |
V:2
 [B,,B,]2 [B,,B,]2 [B,,B,]2 [B,,B,]2 | [E,B,]2 [E,B,]2 [B,,B,]2 [B,,B,]2 | .[A,C]2 .[CE]2 z4 | %3
 [B,,B,]2 [C,B,]2 [F,A,]4 | [B,,B,]2 [B,,B,]2 [B,,B,]2 [B,,B,]2 | z2 [E,B,]2 z4 | %6
 z B, [B,,B,]2 [D,B,]2 [E,B,]2 | [F,B,F]2 .[F,A,F]2 B,,4 | D2 A,2 B,2 G,2 | A,2 ^F,D, G,A, B,2 | %10
 C2 [B,C=E]2 [A,CF]2 z f | z2[K:bass] z B, z2 E2 | [B,,B,]2 [B,,B,]2 [B,,B,]2 [B,,B,]2 | %13
 z2 [E,B,]2 z4 | z B, [B,,B,]2 [D,B,]2 [E,B,]2 | [F,B,F]2 .[F,A,F]2 [B,,B,]4 |] %16
V:3
 x8 | x8 | F2 F2 [A,B]2 .[B,B]2 | x8 | x8 | x8 | z4 .F2 G2 | d2 z E [B,DB]4 | x8 | x8 | x8 | x8 | %12
 x8 | x8 | [F,B,D][DF][DB][Fd] F_AG-[Ge] | d2 z E [DB]4 |] %16
V:4
 x8 | x8 | F,-[F,B,]F,-[F,A,] B,,C,D,[C,A,] | x8 | x8 | [E,B,]2 z E B,,2 B,,2 | B,,2 z2 z4 | x8 | %8
 x8 | x8 | z4 z2 [F,C]2 | C4[K:bass] z4 | x8 | [E,B,]2 z E B,,2 B,,2 | B,,2 z2 z4 | x8 |] %16
V:5
 x8 | x8 | x8 | x8 | x8 | x8 | x8 | x8 | x8 | x8 | x8 | z2[K:bass] C,2 F,4 | x8 | x8 | x8 | x8 |] %16

